COLOR/mimes 16/16/application-x-lmms-project.svg

<svg height="16" viewBox="0 0 4.233125 4.233125" width="16" xmlns="http://www.w3.org/2000/svg" xmlns:xlink="http://www.w3.org/1999/xlink"><linearGradient id="a" gradientUnits="userSpaceOnUse" x1="328" x2="328" y1="237" y2="251"><stop offset="0" stop-color="#fff"/><stop offset=".125" stop-color="#fff" stop-opacity=".098039"/><stop offset=".92500001" stop-color="#fff" stop-opacity=".098039"/><stop offset="1" stop-color="#fff" stop-opacity=".498039"/></linearGradient><clipPath id="b"><path d="m325.09646 237c-2.80769 0-3.10979.28839-3.09603 3.10176v3.89824 3.89824c-.0138 2.81337.28834 3.10176 3.09603 3.10176h5.8075c2.8077 0 3.09604-.28835 3.09604-3.10176v-3.89824-3.89824c0-2.8134-.28835-3.10176-3.09604-3.10176z"/></clipPath><filter id="c" color-interpolation-filters="sRGB" height="1.024264" width="1.023742" x="-.011871" y="-.012132"><feGaussianBlur stdDeviation=".039570175"/></filter><linearGradient id="d" gradientUnits="userSpaceOnUse" x1="2.88508723133" x2="1.34818507203" y1="4.100839965" y2=".132285315"><stop offset="0" stop-color="#27ab5f"/><stop offset="1" stop-color="#249a56"/></linearGradient><path d="m2.8849672.13228548c.187972 0 .3369145.004074.463514.0253194.1265996.021245.2372429.0627772.3193443.14468826.082102.081908.1236232.1921045.1446883.3188283.02106.1267213.024684.2760845.023758.46454846v1.0308929 1.0314115c.0007937.188165-.00273.3374488-.023758.4640299-.02106.1267238-.062584.23692-.1446883.3188284-.082104.081911-.1927421.1234352-.3193443.1446882-.1266022.021245-.275542.025319-.463514.025319h-1.5367831c-.1879719 0-.3366287-.00405-.46299804-.025319-.12636672-.0212715-.23701267-.0627376-.31882839-.1446882-.08180779-.0819507-.12294318-.1922924-.14416966-.3188284-.02121854-.1265334-.02531938-.275685-.02531938-.4640299v-1.0314115-1.0314115c0-.18834496.004101-.33749646.0253194-.46402986.0212185-.126536.0623592-.2368777.14416964-.3188284.0818157-.0819506.19246167-.12342202.31882839-.14468818.12636934-.0212715.27502614-.0253194.46299804-.0253194z" fill="url(#d)"/><path d="m7.0004998 5.17196-4 2.23659v4.89253l1.33333.69895 1.33333-.69895v-1.67745l-1.33333-.69892v-1.67744l2.66667-1.53766 2.66667 1.53766v1.67744l-1.33334.69893v1.67744l1.33334.69895 1.3333302-.69895v-4.89253z" filter="url(#c)" opacity=".2" transform="matrix(.26457031 0 0 .26457031 .26457 0)"/><path d="m2.1166947.26457063v3.70398437h.7683916c.7428341 0 .8190303-.076236.8190303-.8205807v-1.0314115-1.0314115c0-.74434206-.076199-.82058067-.8190303-.82058067z" fill="#fff" opacity=".08"/><path d="m.52927284 2.1165628v1.0314115c-.003651.7443342.0761989.8205807.81903036.8205807h1.5367831c.7428341 0 .8190303-.076236.8190303-.8205807v-1.0314115z" fill="#fff" opacity=".08"/><path d="m1.3483032.13228548c-.1879719 0-.3369145.004074-.463514.0253194-.12659954.021245-.23724284.0627772-.3193443.14468826-.0821015.0819083-.12362312.1921045-.14468821.3188283-.0210598.1267213-.0246844.2760845-.0237584.46454846v1.0308929 1.0314115c-.00079371.188165.002725.3374488.0237584.4640299.0210598.1267238.0625841.23692.14468821.3188284.0821041.081911.19274212.1234352.3193443.1446882.1266022.021245.2755421.025319.463514.025319h1.5367831c.1879719 0 .3366287-.00405.4629981-.025319.1263667-.0212715.2370126-.0627376.3188284-.1446882.0818078-.0819507.1229431-.1922924.1441696-.3188284.0212186-.1265334.0253194-.275685.0253194-.4640299v-1.0314115-1.0314115c0-.18834496-.0041-.33749646-.025319-.46402986-.021219-.126536-.06236-.2368777-.14417-.3188284-.0818158-.08195063-.1924617-.12342202-.3188284-.14468818-.1263694-.02127146-.2750262-.02531938-.4629981-.02531938z" fill="none" opacity=".4" stroke="#000" stroke-width=".26457"/><path clip-path="url(#b)" d="m325.09646 237c-2.80769 0-3.10979.28839-3.09603 3.10176v3.89824 3.89824c-.0138 2.81337.28834 3.10176 3.09603 3.10176h5.8075c2.8077 0 3.09604-.28835 3.09604-3.10176v-3.89824-3.89824c0-2.8134-.28835-3.10176-3.09604-3.10176z" fill="none" opacity=".4" stroke="url(#a)" stroke-width="2" transform="matrix(.26457031 0 0 .26457031 -84.662367 -62.438594)"/><path d="m1.058413 1.7072869c.02821-.0049 1.058281-.560313 1.058281-.560313l1.058281.560313v1.225685l-.35276.175098-.352761-.175098v-.420235l.352761-.175098v-.420234l-.705521-.385216-.705521.385216v.420234l.352761.175098v.420235l-.352761.175098-.35276-.175098z" fill="#fff" fill-opacity=".957547"/></svg>

<?xml version="1.0" encoding="UTF-8" standalone="no"?>
<svg
   xmlns:dc="http://purl.org/dc/elements/1.1/"
   xmlns:cc="http://creativecommons.org/ns#"
   xmlns:rdf="http://www.w3.org/1999/02/22-rdf-syntax-ns#"
   xmlns:svg="http://www.w3.org/2000/svg"
   xmlns="http://www.w3.org/2000/svg"
   xmlns:xlink="http://www.w3.org/1999/xlink"
   xmlns:sodipodi="http://sodipodi.sourceforge.net/DTD/sodipodi-0.dtd"
   xmlns:inkscape="http://www.inkscape.org/namespaces/inkscape"
   height="16"
   viewBox="0 0 4.233125 4.233125"
   width="16"
   version="1.1"
   id="svg41"
   sodipodi:docname="1.svg"
   inkscape:version="0.92.5 (2060ec1f9f, 2020-04-08)">
  <metadata
     id="metadata47">
    <rdf:RDF>
      <cc:Work
         rdf:about="">
        <dc:format>image/svg+xml</dc:format>
        <dc:type
           rdf:resource="http://purl.org/dc/dcmitype/StillImage" />
        <dc:title />
      </cc:Work>
    </rdf:RDF>
  </metadata>
  <defs
     id="defs45">
    <clipPath
       clipPathUnits="userSpaceOnUse"
       id="clipPath983">
      <path
         sodipodi:nodetypes="scccssscsss"
         inkscape:connector-curvature="0"
         id="path985"
         d="m 325.09646,237 c -2.80769,0 -3.10979,0.28839 -3.09603,3.10176 V 244 v 3.89824 c -0.0138,2.81337 0.28834,3.10176 3.09603,3.10176 h 5.8075 C 333.71166,251 334,250.71165 334,247.89824 V 244 240.10176 C 334,237.28836 333.71165,237 330.90396,237 Z"
         style="color:#000000;display:inline;overflow:visible;visibility:visible;opacity:1;fill:#46a926;fill-opacity:1;fill-rule:nonzero;stroke:none;stroke-width:2;stroke-miterlimit:4;stroke-dasharray:none;stroke-opacity:1;marker:none;enable-background:accumulate" />
    </clipPath>
    <linearGradient
       inkscape:collect="always"
       xlink:href="#linearGradient927"
       id="linearGradient993"
       x1="328"
       y1="237"
       x2="328"
       y2="251"
       gradientUnits="userSpaceOnUse" />
    <linearGradient
       inkscape:collect="always"
       id="linearGradient927">
      <stop
         style="stop-color:#ffffff;stop-opacity:1;"
         offset="0"
         id="stop923" />
      <stop
         id="stop933"
         offset="0.125"
         style="stop-color:#ffffff;stop-opacity:0.09803922" />
      <stop
         id="stop931"
         offset="0.92500001"
         style="stop-color:#ffffff;stop-opacity:0.09803922" />
      <stop
         style="stop-color:#ffffff;stop-opacity:0.49803922"
         offset="1"
         id="stop925" />
    </linearGradient>
    <clipPath
       clipPathUnits="userSpaceOnUse"
       id="clipPath983-3">
      <path
         sodipodi:nodetypes="scccssscsss"
         inkscape:connector-curvature="0"
         id="path985-6"
         d="m 325.09646,237 c -2.80769,0 -3.10979,0.28839 -3.09603,3.10176 V 244 v 3.89824 c -0.0138,2.81337 0.28834,3.10176 3.09603,3.10176 h 5.8075 C 333.71166,251 334,250.71165 334,247.89824 V 244 240.10176 C 334,237.28836 333.71165,237 330.90396,237 Z"
         style="color:#000000;display:inline;overflow:visible;visibility:visible;opacity:1;fill:#46a926;fill-opacity:1;fill-rule:nonzero;stroke:none;stroke-width:2;stroke-miterlimit:4;stroke-dasharray:none;stroke-opacity:1;marker:none;enable-background:accumulate" />
    </clipPath>
    <filter
       inkscape:collect="always"
       style="color-interpolation-filters:sRGB"
       id="filter4508"
       x="-0.011871052"
       width="1.0237421"
       y="-0.01213178"
       height="1.0242636">
      <feGaussianBlur
         inkscape:collect="always"
         stdDeviation="0.039570175"
         id="feGaussianBlur4510" />
    </filter>
    <linearGradient
       gradientTransform="matrix(0.26457031,0,0,0.26457031,-84.662366,-62.438593)"
       inkscape:collect="always"
       xlink:href="#linearGradient4244-6"
       id="linearGradient5119"
       x1="330.9043"
       y1="251.5"
       x2="325.09525"
       y2="236.5"
       gradientUnits="userSpaceOnUse" />
    <linearGradient
       id="linearGradient4244-6"
       inkscape:collect="always">
      <stop
         id="stop4428"
         offset="0"
         style="stop-color:#27ab5f;stop-opacity:1" />
      <stop
         id="stop4430"
         offset="1"
         style="stop-color:#249a56;stop-opacity:1" />
    </linearGradient>
  </defs>
  <sodipodi:namedview
     pagecolor="#ffffff"
     bordercolor="#666666"
     borderopacity="1"
     objecttolerance="10"
     gridtolerance="10"
     guidetolerance="10"
     inkscape:pageopacity="0"
     inkscape:pageshadow="2"
     inkscape:window-width="1452"
     inkscape:window-height="858"
     id="namedview43"
     showgrid="false"
     inkscape:zoom="14.75"
     inkscape:cx="-4.2033898"
     inkscape:cy="8"
     inkscape:window-x="0"
     inkscape:window-y="27"
     inkscape:window-maximized="0"
     inkscape:current-layer="svg41" />
  <linearGradient
     id="a"
     gradientUnits="userSpaceOnUse"
     x1="328"
     x2="328"
     y1="237"
     y2="251">
    <stop
       offset="0"
       stop-color="#fff"
       id="stop2" />
    <stop
       offset=".125"
       stop-color="#fff"
       stop-opacity=".098039"
       id="stop4" />
    <stop
       offset=".92500001"
       stop-color="#fff"
       stop-opacity=".098039"
       id="stop6" />
    <stop
       offset="1"
       stop-color="#fff"
       stop-opacity=".498039"
       id="stop8" />
  </linearGradient>
  <clipPath
     id="b">
    <path
       d="m325.09646 237c-2.80769 0-3.10979.28839-3.09603 3.10176v3.89824 3.89824c-.0138 2.81337.28834 3.10176 3.09603 3.10176h5.8075c2.8077 0 3.09604-.28835 3.09604-3.10176v-3.89824-3.89824c0-2.8134-.28835-3.10176-3.09604-3.10176z"
       id="path11" />
  </clipPath>
  <linearGradient
     gradientUnits="userSpaceOnUse"
     x1="334.86633"
     x2="334.86633"
     y1="140.23035"
     y2="160.63107"
     id="linearGradient18">
    <stop
       offset="0"
       stop-color="#808080"
       id="stop14" />
    <stop
       offset="1"
       stop-color="#999"
       id="stop16" />
  </linearGradient>
  <linearGradient
     id="c"
     gradientTransform="matrix(0 -.00953618 .00953591 0 -.942984 4.47364)"
     gradientUnits="userSpaceOnUse"
     x1="459.03448"
     x2="35.310345"
     y1="419.23337"
     y2="207.36522">
    <stop
       offset="0"
       stop-color="#f2f2f2"
       id="stop20" />
    <stop
       offset="1"
       stop-color="#f9f9f9"
       id="stop22" />
  </linearGradient>
  <path
     style="color:#000000;display:inline;overflow:visible;visibility:visible;fill:url(#linearGradient5119);fill-opacity:1;fill-rule:nonzero;stroke:none;stroke-width:0.26457033;marker:none;enable-background:accumulate"
     d="m 2.8849672,0.13228548 c 0.187972,0 0.3369145,0.004074 0.463514,0.0253194 0.1265996,0.021245 0.2372429,0.0627772 0.3193443,0.14468826 0.082102,0.081908 0.1236232,0.1921045 0.1446883,0.3188283 0.02106,0.1267213 0.024684,0.2760845 0.023758,0.46454846 v 1.0308929 1.0314115 c 7.937e-4,0.188165 -0.00273,0.3374488 -0.023758,0.4640299 -0.02106,0.1267238 -0.062584,0.23692 -0.1446883,0.3188284 -0.082104,0.081911 -0.1927421,0.1234352 -0.3193443,0.1446882 -0.1266022,0.021245 -0.275542,0.025319 -0.463514,0.025319 H 1.3481841 c -0.1879719,0 -0.3366287,-0.00405 -0.46299804,-0.025319 C 0.75881934,4.0542493 0.64817339,4.0127832 0.56635767,3.9308326 0.48454988,3.8488819 0.44341449,3.7385402 0.42218801,3.6120042 0.40096947,3.4854708 0.39686863,3.3363192 0.39686863,3.1479743 V 2.1165628 1.0851513 c 0,-0.18834496 0.004101,-0.33749646 0.0253194,-0.46402986 0.0212185,-0.126536 0.0623592,-0.2368777 0.14416964,-0.3188284 C 0.64817337,0.22034244 0.75881934,0.17887102 0.88518606,0.15760486 1.0115554,0.13633336 1.1602122,0.13228546 1.3481841,0.13228546 Z"
     id="path918"
     inkscape:connector-curvature="0" />
  <path
     sodipodi:nodetypes="ccccccccccccccccc"
     inkscape:connector-curvature="0"
     id="path4265-5-9-6-8-0"
     d="m 7.0004998,5.17196 -4,2.23659 v 4.89253 l 1.33333,0.69895 1.33333,-0.69895 V 10.62363 L 4.3338298,9.92471 V 8.24727 l 2.66667,-1.53766 2.66667,1.53766 v 1.67744 l -1.33334,0.69893 v 1.67744 l 1.33334,0.69895 L 11.0005,12.30108 V 7.40855 Z"
     style="color:#000000;font-style:normal;font-variant:normal;font-weight:normal;font-stretch:normal;font-size:medium;line-height:normal;font-family:sans-serif;text-indent:0;text-align:start;text-decoration:none;text-decoration-line:none;text-decoration-style:solid;text-decoration-color:#000000;letter-spacing:normal;word-spacing:normal;text-transform:none;writing-mode:lr-tb;direction:ltr;baseline-shift:baseline;text-anchor:start;white-space:normal;clip-rule:nonzero;display:inline;overflow:visible;visibility:visible;opacity:0.2;isolation:auto;mix-blend-mode:normal;color-interpolation:sRGB;color-interpolation-filters:linearRGB;solid-color:#000000;solid-opacity:1;fill:#000000;fill-opacity:1;fill-rule:nonzero;stroke:none;stroke-width:0.97797471;stroke-linecap:butt;stroke-linejoin:miter;stroke-miterlimit:4;stroke-dasharray:none;stroke-dashoffset:0;stroke-opacity:1;filter:url(#filter4508);color-rendering:auto;image-rendering:auto;shape-rendering:auto;text-rendering:auto;enable-background:accumulate"
     transform="matrix(0.26457031,0,0,0.26457031,0.2645703,3.1719349e-7)" />
  <path
     style="color:#000000;display:inline;overflow:visible;visibility:visible;opacity:0.07999998;fill:#ffffff;fill-opacity:1;fill-rule:nonzero;stroke:none;stroke-width:0.26457033;marker:none;enable-background:accumulate"
     d="M 2.1166947,0.26457063 V 3.968555 h 0.7683916 c 0.7428341,0 0.8190303,-0.076236 0.8190303,-0.8205807 V 2.1165628 1.0851513 c 0,-0.74434206 -0.076199,-0.82058067 -0.8190303,-0.82058067 z"
     id="path1009"
     inkscape:connector-curvature="0" />
  <path
     style="color:#000000;display:inline;overflow:visible;visibility:visible;opacity:0.07999998;fill:#ffffff;fill-opacity:1;fill-rule:nonzero;stroke:none;stroke-width:0.26457033;marker:none;enable-background:accumulate"
     d="M 0.52927284,2.1165628 V 3.1479743 C 0.52562184,3.8923085 0.60547174,3.968555 1.3483032,3.968555 h 1.5367831 c 0.7428341,0 0.8190303,-0.076236 0.8190303,-0.8205807 V 2.1165628 Z"
     id="path1016"
     inkscape:connector-curvature="0" />
  <path
     id="path1087"
     d="m 1.3483032,0.13228548 c -0.1879719,0 -0.3369145,0.004074 -0.463514,0.0253194 -0.12659954,0.021245 -0.23724284,0.0627772 -0.3193443,0.14468826 -0.0821015,0.0819083 -0.12362312,0.1921045 -0.14468821,0.3188283 -0.0210598,0.1267213 -0.0246844,0.2760845 -0.0237584,0.46454846 v 1.0308929 1.0314115 c -7.9371e-4,0.188165 0.002725,0.3374488 0.0237584,0.4640299 0.0210598,0.1267238 0.0625841,0.23692 0.14468821,0.3188284 0.0821041,0.081911 0.19274212,0.1234352 0.3193443,0.1446882 0.1266022,0.021245 0.2755421,0.025319 0.463514,0.025319 h 1.5367831 c 0.1879719,0 0.3366287,-0.00405 0.4629981,-0.025319 C 3.4744511,4.0542493 3.585097,4.0127832 3.6669128,3.9308326 3.7487206,3.8488819 3.7898559,3.7385402 3.8110824,3.6120042 3.832301,3.4854708 3.8364018,3.3363192 3.8364018,3.1479743 V 2.1165628 1.0851513 c 0,-0.18834496 -0.0041,-0.33749646 -0.025319,-0.46402986 -0.021219,-0.126536 -0.06236,-0.2368777 -0.14417,-0.3188284 C 3.585097,0.22034241 3.4744511,0.17887102 3.3480844,0.15760486 3.221715,0.1363334 3.0730582,0.13228548 2.8850863,0.13228548 Z"
     style="color:#000000;display:inline;overflow:visible;visibility:visible;opacity:0.4;fill:none;fill-opacity:1;fill-rule:nonzero;stroke:#000000;stroke-width:0.26457033;stroke-opacity:1;marker:none;enable-background:accumulate"
     inkscape:connector-curvature="0" />
  <path
     transform="matrix(0.26457031,0,0,0.26457031,-84.662367,-62.438594)"
     style="color:#000000;display:inline;overflow:visible;visibility:visible;opacity:0.4;fill:none;fill-opacity:1;fill-rule:nonzero;stroke:url(#linearGradient993);stroke-width:2;stroke-miterlimit:4;stroke-dasharray:none;stroke-opacity:1;marker:none;enable-background:accumulate"
     d="m 325.09646,237 c -2.80769,0 -3.10979,0.28839 -3.09603,3.10176 V 244 v 3.89824 c -0.0138,2.81337 0.28834,3.10176 3.09603,3.10176 h 5.8075 C 333.71166,251 334,250.71165 334,247.89824 V 244 240.10176 C 334,237.28836 333.71165,237 330.90396,237 Z"
     id="path937"
     inkscape:connector-curvature="0"
     sodipodi:nodetypes="scccssscsss"
     clip-path="url(#clipPath983-3)" />
  <path
     style="fill:#ffffff;fill-opacity:0.95754718;stroke:none;stroke-width:0.01931241px;stroke-linecap:butt;stroke-linejoin:miter;stroke-opacity:1"
     d="m 1.058413,1.7072869 c 0.02821,-0.0049 1.058281,-0.560313 1.058281,-0.560313 l 1.058281,0.560313 v 1.225685 L 2.822215,3.1080699 2.469454,2.9329719 V 2.5127369 L 2.822215,2.3376389 V 1.9174049 L 2.116694,1.5321889 1.411173,1.9174049 v 0.420234 l 0.352761,0.175098 v 0.420235 l -0.352761,0.175098 -0.35276,-0.175098 z"
     id="path860"
     inkscape:connector-curvature="0" />
</svg>
